X: 1
T: An Buachailln Bn 
T: Fair Haired Boy, The
T: John Egans 1
D: &quot;Kitty Hayes And Peter Laban: They'll Be Good Yet&quot;
M: 6/8
L: 1/8
R: jig
K: Ador
|: AG |\ 
EAA AGA | Bdd dBd | ege dBG | BAB GED |
E2 A AGA | Bdd dBd | ege dBG | BAG A- :|
|: Bd |\
e2 a aga | e2 g ged | ege dBG | BAB GED |
e2 a aga | e2 g ged | ege dBG | BAB A :|
E2 A AGA | Bdd dBd | ege dBG | BAG A- |]
